X:0241
T:"The Charming Fair Maid "      (air)         0241
N:            >>>>Nine Bars per Section<<<<
C:after Sg't J. O'Neill
C:slow
B:O'Neill's Music Of Ireland (The 1850)   Lyon & Healy, Chicago   1903 ed.
Q:1/4=70
Z:FROM O'NEILL'S TO NOTEWORTHY, FROM NOTEWORTHY TO ABC, MIDI AND .TXT BY VINCE BRENNAN 6-21-03 (HTTP://WWW.SOSYOURMOM.COM)
I:abc2nwc
M:3/4
L:1/8
K:D
"_vb"z2z2dc|A2A2Bc|d4de|f4ed|e2d4|f4gf|e4a2|d2c2d2|e2d4||
ed d2(cB/2A/2)|AB c2z2|ed dc BA|AG F2ED|C4DE|F4AG|D2C2D2|E2D4|]
